X:1178
T:The Broken Pledge
M:C|
L:1/8
R:Reel
B:ONeill's 1178
N:Collected by McFadden
Z:Transcribed by Trish O'Neil
K:D
d|dcAG AD 3DDD|cAGF ECCE|DEFG Addc|ABGB Adfe|
dcAG A2dB|3cBA GF ECCE|DEFG Addc|3ABA GE EDD2||
d|edcAGA2de|fefd ecAB|dcAGE GAcd|3efg df ecAc|
dcAG A2de|fefd ecAG|~FEFG Addc|AcGE FEDD2|]
